X: 760
T: My Sweetheart Jane
R: reel
%S: s:2 b:16(8+8)
B: Francis O'Neill: "The Dance Music of Ireland" (1907) #760
Z: Frank Nordberg - http://www.musicaviva.com
F: http://www.musicaviva.com/abc/tunes/ireland/oneill-1001/0760/oneill-1001-0760-1.abc
M: C|
L: 1/8
K: G
"^A"\
[| DGGF Adde | ABcA dBcA | DGGF Adde | fdcA BGAF ||
|| DGGF Adde | ABcA dBcA | DGGF Adde | fdcA AGG2 |]
"^B"\
[| dggf g2ag | fdde fgaf | dggf gbag | fdcA dBcA ||
|| degf g2ag | fdde fga2 | bgaf gdde | fdcA AGG2 |]
